!!!COM: Haydn, Franz Joseph
!!!OPR: String Quartet in D Minor
!!!ONM: Opus 103
!!!OTL: Affettuoso 
!!!OMV: 1
!!!SCT: H III:83
!!!SCA: Thematisch-bibliographisches Werkevererzeichnis (A. van Hoboken)
!!!YOR: Offenbach Edition 2377, 1807
!!!EED: Frances Bennion
!!!ENC: Frances Bennion
!!!CDT: 1732/3/31/-1809/5/31/
!!!OCY: Österreich
!!!YEC: Copyright (c) 1994, 2000 Center for Computer Assisted Research in the Humanities
!!!YEM: Rights to all derivative editions reserved.
!!!YEM: Refer to licensing agreement for further details.
!!!YEN: United States of America
**kern	**kern	**kern	**kern
*k[b-e-]	*k[b-e-]	*k[b-e-]	*k[b-e-]
*B-:	*B-:	*B-:	*B-:
*clefF	*clefF	*clefC3	*clefF4
*M2/4	*M2/4	*M2/4	*M2/4
*tb64	*tb64	*tb64	*tb64
=1	=1	=1	=1
4.dd	4.f	8r	8r
.	.	8D	8BB-
.	.	8F	8D
8cc	8e-	8A	8F
=2	=2	=2	=2
4cc	4e-	4A	4F#
8b-	8d	8B-	8G
8b	8a-	8d	8F
=3	=3	=3	=3
8cc	8g	8G	8E-
8dd	8B	8F	8D
8ee-	16c	8E-	8C
.	16g	.	.
16dd	16f	8g	8E-
16cc	16e-	.	.
=4	=4	=4	=4
4b-	8d	8f	8F
.	8d-	8g	8E
8a	8c	8f	8F
8r	8cc	8A	8E-
=5	=5	=5	=5
4.ff	8.b-	8B-	8D
.	.	8f	8d
.	32cc	.	.
.	32b-	.	.
.	8a	8e-	8c
8ee-	8cc	8A	8F
=6	=6	=6	=6
8ee-	4f	8.B-	4B-
8dd	.	.	.
.	.	16c	.
8cc	8f#	8d	8A
8dd	8a	8A	8F#
=7	=7	=7	=7
8b-	4d	4B-	8G
16a	.	.	8B-
16g	.	.	.
8cc	8r	8r	8r
8e	[8B-	[8G	8C
=8	=8	=8	=8
8.f	8B-]	8G]	8FF
.	8A	8F	8F
16g	.	.	.
16a	4r	4r	4r
16b-	.	.	.
16cc	.	.	.
16cc#	.	.	.
=9	=9	=9	=9
4f	8B-	16F	8F
.	.	8f	.
.	8A	.	8FF
.	.	16e	.
4r	4r	16e-	4r
.	.	16d	.
.	.	16c	.
.	.	16B-	.
=10	=10	=10	=10
8.ff	4d	4A-	4.BB-
16ee-	.	.	.
16dd	[4f	8.a-	.
16cc	.	.	.
16b-	.	.	16D
16a-	.	16f	16C
=11	=11	=11	=11
8g	16f]	4.d	8.BB
.	16e-	.	.
8b	16d	.	.
.	16c	.	16AA
8dd	8B	.	16GG
.	.	.	16FF
8ff	8b	8G	16EE-
.	.	.	16DD
=12	=12	=12	=12
4ee-	8.gg	8C	4CC
.	.	8c	.
.	16ff	.	.
[4ccc	16ee-	[4e-	4r
.	16dd	.	.
.	16cc	.	.
.	16b-	.	.
=13	=13	=13	=13
16ccc]	16a	16e-]	4.F
16bb-	16b-	16d	.
16aa	16cc	16c	.
16gg	16dd	16B-	.
8ff	8ee-	8A	.
8ee-	[8cc	8F#	8F#
=14	=14	=14	=14
4dd	8cc]	8G	8.G
.	16b-	8g	.
.	16a	.	16F#
[4gg	8b-	8r	16F
.	.	.	16E
.	8b-	8E	16D
.	.	.	16C
=15	=15	=15	=15
8gg]	4.a	8F	[2F
8cc	.	8f	.
8ff	.	8r	.
8ff	8b-	8d	.
=16	=16	=16	=16
4.ff	8a	8c	2F_
.	8a-	8B	.
.	8g	8B-	.
8ee	8g	16d-	.
.	.	16B-	.
=17	=17	=17	=17
4..ee-	[2g-	8A	2F_
.	.	16.B	.
.	.	64A	.
.	.	64B	.
.	.	8c	.
.	.	8B-	.
16cc	.	.	.
=18	=18	=18	=18
4..ee-	2g-]	8A	2F_
.	.	16.B	.
.	.	64A	.
.	.	64B	.
.	.	8c	.
.	.	8B-	.
16cc	.	.	.
=19	=19	=19	=19
2ee-	4f	4A	2F]
.	16g-	8B-	.
.	16g	.	.
.	16a-	8c	.
.	16a	.	.
=20	=20	=20	=20
4.dd	8b-	8B-	8r
.	4f	8D	8BB-
.	.	8F	8D
8cc	8e-	8A	8F
=21	=21	=21	=21
4cc	4e-	4A	4F#
8b-	8d	8B-	8G
8b	8a-	8d	8F
=22	=22	=22	=22
8cc	8g	8G	8E-
8dd	8B	8F	8D
8ee-	16c	8E-	8C
.	16g	.	.
16dd	16f	8g	8E-
16cc	16e-	.	.
=23	=23	=23	=23
4b-	8d	8f	8F
.	8d-	8g	8E
8a	8c	8f	8F
8r	8cc	8A	8E-
=24	=24	=24	=24
4ff	2b-	2B-	8D
.	.	.	8DD
8ff#	.	.	8EE-
8gg	.	.	8E-
=25	=25	=25	=25
4.aa-	4b	8D	2r
.	.	8d	.
.	4cc	8e-	.
8gg	.	8E-	.
=26	=26	=26	=26
8bb-	4.dd-	8G	8EE
32gg	.	8b-	8E
32ff#	.	.	.
32gg	.	.	.
32aa	.	.	.
8bb-	.	8e	8G
8bb-	32dd-	8g	8E
.	32cc	.	.
.	32dd-	.	.
.	32cc	.	.
=27	=27	=27	=27
4dd	4b-	8.f	[2F
.	.	16e	.
8ee-	8cc	16e-	.
.	.	16d	.
8ee	8dd-	16d-	.
.	.	16c	.
=28	=28	=28	=28
8ff	8dd	8B-	8F]
8dd	8b-	8B-	8G
8ee-	8cc	8g	8E-
8a	8e-	16c	8F
.	.	16A	.
=29	=29	=29	=29
4cc	4e-	4A	4.BB-
16b-	8d	8B-	.
16f	.	.	.
16b-	8r	8r	8r
16dd	.	.	.
=30	=30	=30	=30
4cc	4e-	4A	4.BB-
8b-	8d	8B-	.
8r	8r	8r	8r
=31	=31	=31	=31
4gg-	4g-	4G-	4GG-
8dd-	8d-	8D-	8DD-
8bb-	8b-	8B-	8BB-
=32	=32	=32	=32
8gg-	8g-	8G-	8GG-
8bb-	8b-	8B-	8BB-
[4ddd-	8dd-	8d-	8D-
.	8dd-	8g-	8B-
=33	=33	=33	=33
4ddd-]	2ee-	8g-	4.c-
.	.	8g	.
16ccc-	.	8a-	.
16bb-	.	.	.
16aa-	.	8b--	8c
16gg-	.	.	.
=34	=34	=34	=34
4gg-	8dd-	8a-	4d-
.	8cc	8b--	.
8ff	8dd-	8a-	16r
.	.	.	16C-
8r	8r	8r	16BB-
.	.	.	16AA-
=35	=35	=35	=35
24bb-	8b-	8d-	8GG-
24gg-	.	.	.
24dd-	.	.	.
24b-	8b-	8d-	8GG-
24g-	.	.	.
24d-	.	.	.
24c	8r	8r	8r
24d-	.	.	.
24g-	.	.	.
24b-	24b-	24d-	24G-
24dd-	24b-	24d-	24G-
24gg-	24b-	24d-	24G-
=36	=36	=36	=36
24ccc-	8a-	8d-	8F
24aa-	.	.	.
24ff	.	.	.
24dd-	8cc-	8d-	8F
24cc-	.	.	.
24a-	.	.	.
24f	8r	8r	8r
24a-	.	.	.
24cc-	.	.	.
24dd-	24cc-	24d-	24F
24ff	24cc-	24d-	24F
24aa-	24cc-	24d-	24F
=37	=37	=37	=37
24bb-	8b-	8d-	8G-
24gg-	.	.	.
24dd-	.	.	.
24b-	8b-	8d-	8G-
24g-	.	.	.
24d-	.	.	.
24c	8r	8r	8r
24d-	.	.	.
24g-	.	.	.
24b-	24b-	24d-	24G-
24dd-	24b-	24d-	24G-
24gg-	24b-	24d-	24G-
=38	=38	=38	=38
24ccc-	8a-	8d	8F
24aa-	.	.	.
24ff	.	.	.
24dd	8cc-	8d	8F
24cc-	.	.	.
24a-	.	.	.
24d	8r	8r	8r
24f	.	.	.
24a-	.	.	.
24cc-	24d	24a-	24F
24d	24d	24a-	24F
24cc-	24d	24a-	24F
=39	=39	=39	=39
24b-	8e-	8g-	8G-
24e-	.	.	.
24b-	.	.	.
24cc-	8d	8a-	8F
24d	.	.	.
24cc-	.	.	.
24b-	8e-	8g-	8G-
24e-	.	.	.
24b-	.	.	.
24cc-	8d	8a-	8F
24d	.	.	.
24cc-	.	.	.
=40	=40	=40	=40
24b-	[2e-	16g-	[2G-
24e-	.	.	.
.	.	16B-	.
24ee-	.	.	.
24b-	.	4B-	.
24e-	.	.	.
24ee-	.	.	.
24b-	.	.	.
24e-	.	.	.
24ee-	.	.	.
24b-	.	8B-	.
24e-	.	.	.
24ee-	.	.	.
=41	=41	=41	=41
24cc	2e-]	4B--	2G-]
24e-	.	.	.
24ee-	.	.	.
24cc	.	.	.
24e-	.	.	.
24ee-	.	.	.
24cc	.	[4A-	.
24e-	.	.	.
24ee-	.	.	.
24cc	.	.	.
24e-	.	.	.
24ee-	.	.	.
=42	=42	=42	=42
24dd-	8f	8A-]	8F
24ff	.	.	.
24aa-	.	.	.
24gg-	4a-	24A-	8C
24ee-	.	24a-	.
24aa-	.	24e-	.
24ff	.	8f	8D-
24dd-	.	.	.
24aa-	.	.	.
24gg-	8ee-	24A-	8C
24ee-	.	24a-	.
24aa-	.	24a-	.
=43	=43	=43	=43
24ff	24ff	2a-	8D-
24aa-	24dd-	.	.
24aa-	24ff	.	.
24bb-	24gg-	.	8C
24aa-	24ee-	.	.
24aa-	24gg-	.	.
24ff	24ff	.	8D-
24aa-	24dd-	.	.
24aa-	24ff	.	.
24bb-	24gg-	.	8C
24aa-	24ff	.	.
24gg-	24ee-	.	.
=44	=44	=44	=44
24ff	8ff	8a-	8D-
24aa-	.	.	.
24ddd-	.	.	.
24fff	8r	8a-	8DD-
24eee-	.	.	.
24ddd-	.	.	.
24ccc	8r	8r	8r
24ddd-	.	.	.
24fff	.	.	.
24ddd-	8a-	8d-	8F
24aa-	.	.	.
24ff	.	.	.
=45	=45	=45	=45
24ee-	8b-	8d-	8G-
24bb-	.	.	.
24aa-	.	.	.
24gg-	24b-	4r	24E-
24ff	24a-	.	24F
24ee-	24g-	.	24G-
24dd-	24f	.	8A-
24cc	24e-	.	.
24dd-	24f	.	.
24ee-	24g-	24c	8AA-
24ff	24f	24d-	.
24gg-	24e-	24e-	.
=46	=46	=46	=46
24ff	8f	8f	8D-
24aa-	.	.	.
24ddd-	.	.	.
24fff	8a-	8f	8DD-
24eee-	.	.	.
24ddd-	.	.	.
24ccc	8r	8r	8r
24ddd-	.	.	.
24fff	.	.	.
24ddd-	8a-	8d-	8F
24aa-	.	.	.
24ff	.	.	.
=47	=47	=47	=47
24ee-	8b-	8d-	8G-
24bb-	.	.	.
24aa-	.	.	.
24gg-	24b-	4r	24E-
24ff	24a-	.	24F
24ee-	24g-	.	24G-
24dd-	24f	.	8A-
24cc	24e-	.	.
24ee-	24g-	.	.
24gg-	24c	8A-	8AA-
24ee-	24e-	.	.
24cc	24g-	.	.
=48	=48	=48	=48
24dd-	24f	8A-	2D-
24ff	24A-	.	.
24dd-	24A-	.	.
24a-	24A-	8F	.
24f	24A-	.	.
24d-	24A-	.	.
24c	4B--	4G-	.
24e-	.	.	.
24f	.	.	.
24g-	.	.	.
24e-	.	.	.
24cc	.	.	.
=49	=49	=49	=49
24dd-	24A-	24F	24DD-
24ff	24A-	24F	24DD-
24dd-	24A-	24F	24DD-
24a-	24A-	24F	24DD-
24f	24A-	24F	24DD-
24d-	24A-	24F	24DD-
24c	24B--	24G-	24DD-
24e-	24B--	24G-	24DD-
24f	24B--	24G-	24DD-
24g-	24B--	24G-	24DD-
24e-	24B--	24G-	24DD-
24c	24B--	24G-	24DD-
=50	=50	=50	=50
8d-	8A-	8F	8DD-
8ff	8a-	8F	8DD-
8d-	8f	8F	8DD-
8r	8r	8r	8r
=51	=51	=51	=51
4cc#	2r	2r	2r
8g#	.	.	.
8ee	.	.	.
=52	=52	=52	=52
8cc#	4c#	2r	2r
8ee	.	.	.
[4gg#	8G#	.	.
.	8e	.	.
=53	=53	=53	=53
8gg#]	8c#	4A	2r
8cc#	8e	.	.
8ff#	[4a	8D	.
8ee	.	8c#	.
=54	=54	=54	=54
2dd#	8a]	2F#	4BB
.	8f#	.	.
.	8b	.	8DD#
.	8a	.	8BB
=55	=55	=55	=55
4ee	4.g#	8G#	2EE
.	.	8B	.
8b	.	8B	.
8gg#	8b	8B	.
=56	=56	=56	=56
8ee	4.b	4B	4.GG#
8gg#	.	.	.
[4bb	.	8E	.
.	16b	8e	8G#
.	16b#	.	.
=57	=57	=57	=57
4bb]	2cc#	8e	4.A
.	.	8e#	.
16aa	.	8f#	.
16gg#	.	.	.
16ff#	.	8g	8A#
16ee	.	.	.
=58	=58	=58	=58
4ee	8b	8g#	4B
.	8a#	8g	.
8dd#	8b	8.f#	16r
.	.	.	16AA
8r	8ff#	.	16GG#
.	.	16d#	16FF#
=59	=59	=59	=59
2r	24gg#	8e	8EE
.	24ee	.	.
.	24b	.	.
.	24g#	8B	8E
.	24e	.	.
.	24B	.	.
.	24G#	8r	8r
.	24B	.	.
.	24e	.	.
.	24g#	16.B	8E
.	24f#	.	.
.	24e	32B	.
=60	=60	=60	=60
24aa	8f#	8B	8D#
24ff#	.	.	.
24dd#	.	.	.
24b	8aa	8f#	8DD#
24a	.	.	.
24f#	.	.	.
24d#	8r	8r	8r
24f#	.	.	.
24g#	.	.	.
24a	8ff#	16.B	8DD#
24f#	.	.	.
24b	.	32B	.
=61	=61	=61	=61
8g	24gg	8B	8EE
.	24ee	.	.
.	24b	.	.
8gg	24g	8B	8E
.	24e	.	.
.	24B	.	.
8r	24G	8r	8r
.	24B	.	.
.	24d#	.	.
16.gg	24e	16.B	8E
.	24g	.	.
32gg	24e	32B	.
=62	=62	=62	=62
8gg	8c	16c	24A
.	.	.	24E
.	.	16g	.
.	.	.	24C
8.ccc	8ee	4g	24AA
.	.	.	24C
.	.	.	24E
.	8r	.	24A
.	.	.	24c
16eee	.	.	.
.	.	.	24B
16.ccc	16.e	8g	24A
.	.	.	24c
32aa	32c	.	24e
=63	=63	=63	=63
8ff#	8a	24cc	4D
.	.	24a	.
.	.	24f#	.
8ff#	8a	24d	.
.	.	24c	.
.	.	24A	.
8r	8r	24F#	8r
.	.	24A	.
.	.	24d	.
16.ff#	16.a	24c	8DD
.	.	24A	.
32aa	32f#	24c	.
=64	=64	=64	=64
24bb	8d	8B	8GG
24gg	.	.	.
24dd	.	.	.
24b	8d	8b	8G
24g	.	.	.
24d	.	.	.
24g	8r	8r	8r
24b	.	.	.
24dd	.	.	.
24gg	24b	24d	24G
24dd	24b	24d	24G
24bb	24b	24d	24G
=65	=65	=65	=65
24ccc	8a	8d	8F#
24aa	.	.	.
24ff#	.	.	.
24dd	8a	8d	8F#
24cc	.	.	.
24a	.	.	.
24f#	8r	8r	8r
24a	.	.	.
24dd	.	.	.
24ff#	16.aa	24d	24F#
24aa	.	24d	24F#
24ccc	32dd	24d	24F#
=66	=66	=66	=66
8bb	24gg	8d	8F
.	24dd	.	.
.	24b	.	.
8bb	24g	8d	8F
.	24d	.	.
.	24B	.	.
8r	24G	8r	8r
.	24B	.	.
.	24d	.	.
8bb	24g	8dd	24F
.	24b	.	24F
.	24dd	.	24F
=67	=67	=67	=67
8ccc	8ee	24cc	8E
.	.	24g	.
.	.	24e	.
8ccc	8gg	24c	8E
.	.	24G	.
.	.	24E	.
8r	8r	24C	8r
.	.	24E	.
.	.	24G	.
8ccc	16.gg	24c	24E
.	.	24e	24E
.	32gg	24g	24E
=68	=68	=68	=68
8ccc#	24gg	8b-	8E-
.	24ee-	.	.
.	24b-	.	.
8ccc#	24g	8b-	8E-
.	24e-	.	.
.	24B-	.	.
8r	24G	8r	8r
.	24B-	.	.
.	24e-	.	.
8ccc#	24g	8G	24E-
.	24b-	.	24E-
.	24g	.	24E-
=69	=69	=69	=69
24ddd	24f#	24A	24D
24aa	24f#	24A	24F#
24ff#	24f#	24A	24A
24dd	24f#	24A	24d
24ff#	24f#	24A	24A
24aa	24f#	24A	24F#
24ddd	24g	24B-	24D
24bb-	24g	24B-	24G
24gg	24g	24B-	24B-
24dd	24g	24B-	24d
24gg	24g	24B-	24B-
24bb-	24g	24B-	24G
=70	=70	=70	=70
24ddd	24a	24f#	24D
24aa	24a	24f#	24F#
24ff#	24a	24f#	24A
24dd	24a	24f#	24d
24ff#	24a	24f#	24A
24aa	24a	24f#	24F#
24ddd	24b-	24g	24D
24bb-	24b-	24g	24G
24gg	24b-	24g	24B-
24dd	24b-	24g	24d
24gg	24b-	24g	24B-
24bb-	24b-	24g	24G
=71	=71	=71	=71
24ddd	24a 24d	24f#	24D
24aa	24a 24d	24f#	24F#
24ff#	24a 24d	24f#	24A
24ddd	24a 24d	24f#	24D
24aa	24d 24a	24f#	24F#
24ff#	24a 24d	24f#	24A
24ddd	24a 24d	24f#	24D
24aa	24a 24d	24f#	24F#
24ff#	24a 24d	24f#	24A
24ddd	24a 24d	24f#	24D
24aa	24a 24d	24f#	24F#
24ff#	24a 24d	24f#	24A
=72	=72	=72	=72
8ddd	8a 8d	8f#	8DD
4.r	4.r	4.r	4.r
=73	=73	=73	=73
4.dd	4.f	8r	8r
.	.	8D	8BB-
.	.	8F	8D
8cc	8e-	8A	8F
=74	=74	=74	=74
4cc	4e-	4A	4F#
8b-	8d	8B-	8G
8b	8a-	8d	8F
=75	=75	=75	=75
8cc	8g	8G	8E-
8dd	8B	8F	8D
8ee-	16c	8E-	8C
.	16g	.	.
16dd	16f	8g	8E-
16cc	16e-	.	.
=76	=76	=76	=76
4b-	8d	8f	8F
.	8d-	8g	8E
8a	8c	8f	8F
8r	8cc	8A	8E-
=77	=77	=77	=77
4.ff	8.b-	8B-	8D
.	.	8f	8d
.	32cc	.	.
.	32b-	.	.
.	8a	8e-	8c
8ee-	8cc	8A	8F
=78	=78	=78	=78
8ee-	4f	8.B-	4B-
8dd	.	.	.
.	.	16c	.
8cc	8f#	8d	8A
8dd	8a	8A	8F#
=79	=79	=79	=79
8b-	4d	4B-	8G
16a	.	.	8B-
16g	.	.	.
8cc	8r	8r	8r
8e	[8B-	8g	8C
=80	=80	=80	=80
4f	4B-]	8.f	8F
.	.	.	8FF
.	.	16e	.
4r	8A	16e-	4r
.	.	16d	.
.	8r	16c	.
.	.	16B-	.
=81	=81	=81	=81
8.ff	4d	4A-	4.BB-
16ee-	.	.	.
16dd	[4f	8.a-	.
16cc	.	.	.
16b-	.	.	16D
16a-	.	16f	16C
=82	=82	=82	=82
8g	16f]	4.d	8.BB
.	16e-	.	.
8b	16d	.	.
.	16c	.	16AA
8dd	8B	.	16GG
.	.	.	16FF
8ff	8b	8G	16EE-
.	.	.	16DD
=83	=83	=83	=83
4ee-	8.gg	8C	4CC
.	.	8c	.
.	16ff	.	.
[4ccc	16ee-	[4e-	4r
.	16dd	.	.
.	16cc	.	.
.	16b-	.	.
=84	=84	=84	=84
16ccc]	16a	16e-]	4.F
16bb-	16b-	16d	.
16aa	16cc	16c	.
16gg	16dd	16B-	.
8ff	8ee-	8A	.
8ee-	[8cc	8F#	8F#
=85	=85	=85	=85
4dd	8cc]	8G	8.G
.	16b-	8g	.
.	16a	.	16F#
[4gg	8b-	8r	16F
.	.	.	16E
.	8b-	8E	16D
.	.	.	16C
=86	=86	=86	=86
8gg]	4.a	8F	[2F
8cc	.	8f	.
8ff	.	8r	.
8ff	8b-	8d	.
=87	=87	=87	=87
4.ff	8a	8c	2F_
.	8a-	8B	.
.	8g	8B-	.
8ee	8g	16d-	.
.	.	16B-	.
=88	=88	=88	=88
4.ee-	[2g-	8A	2F_
.	.	16.B	.
.	.	64A	.
.	.	64B	.
.	.	8c	.
16ee-	.	8B-	.
16cc	.	.	.
=89	=89	=89	=89
4.ee-	2g-]	8A	2F_
.	.	16.B	.
.	.	64A	.
.	.	64B	.
.	.	8c	.
16ee-	.	8B-	.
16cc	.	.	.
=90	=90	=90	=90
2ee-	4f	4A	2F]
.	16g-	8B-	.
.	16g	.	.
.	16a-	8c	.
.	16a	.	.
=91	=91	=91	=91
4.dd	8b-	8B-	8r
.	4f	8D	8BB-
.	.	8F	8D
8cc	8e-	8A	8F
=92	=92	=92	=92
4cc	4e-	4A	4F#
8b-	8d	8B-	8G
8b	8a-	8d	8F
=93	=93	=93	=93
8cc	8g	8G	8E-
8dd	8B	8F	8D
8ee-	16c	8E-	8C
.	16g	.	.
16dd	16f	8g	8E-
16cc	16e-	.	.
=94	=94	=94	=94
4b-	8d	8f	8F
.	8d-	8g	8E
8a	8c	8f	8F
8r	8cc	8A	8E-
=95	=95	=95	=95
4ff	2b-	2B-	8D
.	.	.	8DD
8ff#	.	.	8EE-
8gg	.	.	8E-
=96	=96	=96	=96
4.aa-	4b	8D	2r
.	.	8d	.
.	4cc	8e-	.
8gg	.	8E-	.
=97	=97	=97	=97
8bb-	4.dd-	8G	8EE
32gg	.	8b-	8E
32ff#	.	.	.
32gg	.	.	.
32aa	.	.	.
8bb-	.	8e	8G
8bb-	32dd-	8g	8E
.	32cc	.	.
.	32dd-	.	.
.	32cc	.	.
=98	=98	=98	=98
4dd	4b-	8.f	[2F
.	.	16e	.
8ee-	8cc	16e-	.
.	.	16d	.
8ee	8dd-	16d-	.
.	.	16c	.
=99	=99	=99	=99
8ff	8dd	8B-	8F]
8dd	8b-	8B-	8G
8ee-	8cc	8g	8E-
8a	8e-	16c	8F
.	.	16a	.
=100	=100	=100	=100
4cc	4e-	4a	4.G
8b-	8d	8b-	.
8r	8r	8r	8r
=101	=101	=101	=101
4.ee-	4b-	4g	2r
.	8a	8f#	.
8dd	8a-	8f	.
=102	=102	=102	=102
4.dd	4.g	4.e	2r
8cc#	8r	8r	.
=103	=103	=103	=103
4.dd	4a-	4f	2r
.	8g	8e	.
8cc	8g-	8e-	.
=104	=104	=104	=104
4cc	4.f	4.d	4AA-
8b	.	.	8GG
8r	8r	8r	8FF
=105	=105	=105	=105
4cc	4g	4e-	8EE-
.	.	.	4.r
8dd	8b	8d	.
8ee-	8cc	8c	.
=106	=106	=106	=106
4dd	4b-	8f	2r
.	.	8F	.
8cc	8a	16F	.
.	.	16E	.
8r	8r	16F	.
.	.	16E	.
=107	=107	=107	=107
16r	4.f	[2F	4.d
16B-	.	.	.
16d	.	.	.
16f	.	.	.
8b-	.	.	.
8a	8e-	.	8c
=108	=108	=108	=108
8gg	4e-	2F_	4c
8a	.	.	.
8a	8d	.	8B-
8b-	8r	.	8r
=109	=109	=109	=109
16r	4.dd	2F_	4.f
16b-	.	.	.
16dd	.	.	.
16ff	.	.	.
8bb-	.	.	.
8aa	8cc	.	8e-
=110	=110	=110	=110
8eee-	4cc	2F]	4e-
8aa	.	.	.
8aa	8b-	.	8d
8bb-	8r	.	8r
=111	=111	=111	=111
4b- 4e-	2r	16E-	16r
.	.	16G	16EE-
.	.	16B-	16GG
.	.	16e-	16BB-
4r	.	16g	16E-
.	.	16b-	16G
.	.	16ee-	16B-
.	.	16gg	16e-
=112	=112	=112	=112
16r	16r	4ee-	4g
16e-	16B-	.	.
16g	16e-	.	.
16b-	16g	.	.
16ee-	16b-	4r	4r
16gg	16ee-	.	.
16bb-	16gg	.	.
16eee-	16bb-	.	.
=113	=113	=113	=113
8ggg	8eee-	8B- 8g	8EE-
8r	8r	8r	8r
8c 8a 8e-	8a 8e-	8f 8c	8FF
8r	8r	8r	8r
=114	=114	=114	=114
4B- 4b- 4d	4b- 4d	4d 4f	4BB-
4r	4r	4r	4r
==	==	==	==
*-	*-	*-	*-
!!!RWG1: This file contains only pitch and duration data.
!!!RWG2: Transposing instruments are not transposed.
!!!RWG3: Spines may have incompatible meters.
!!!RWG4: Durations of rests and tied notes may be interpreted.
!!!RWG: Key is interpreted using the Humdrum key tool.
!!!GTL: 10 Divertimentos
!!!AFT: stage1
!!!END: 1997/04/15
!!format changes:
!!content changes:
!!public access: complete
!!!KEY: 1502066843
!!!EMD: Converted from MuseData to Humdrum Dec 16, 2000, by Andreas Kornstaedt using muse2kern.
